svgs/tawakkalna_services.svg

<?xml version="1.0" encoding="UTF-8" standalone="no"?>
<!-- Created with Inkscape (http://www.inkscape.org/) -->

<svg
   width="192"
   height="192"
   viewBox="0 0 192 192"
   version="1.1"
   id="svg1"
   xmlns="http://www.w3.org/2000/svg"
   xmlns:svg="http://www.w3.org/2000/svg">
  <defs
     id="defs1" />
  <g
     id="g2"
     transform="matrix(0.95503308,0,0,0.95503308,3.3239375,4.3091798)"
     style="fill:none;stroke:#000000;stroke-width:12.565;stroke-dasharray:none;stroke-opacity:1">
    <path
       id="rect2"
       style="opacity:1;fill:none;stroke:#000000;stroke-width:12.565;stroke-linecap:round;stroke-linejoin:round;stroke-miterlimit:7.55883;stroke-dasharray:none;stroke-opacity:1;paint-order:stroke fill markers"
       d="M 30.696632,21.665009 H 163.38264 a 8,8 45 0 1 8,8 V 162.351 a 8,8 135 0 1 -8,8 H 30.696632 a 8,8 45 0 1 -8,-8 V 29.665009 a 8,8 135 0 1 8,-8 z M 132.84265,59.458083 A 36.931069,36.931069 0 0 1 95.911372,96.38898 36.931069,36.931069 0 0 1 58.980475,59.458083 36.931069,36.931069 0 0 1 95.911372,22.526808 36.931069,36.931069 0 0 1 132.84265,59.458083 Z M 96.330522,169.99985 C 95.356915,147.88054 83.591502,100.18342 23.032511,95.908397 73.878872,92.959987 138.41146,113.39775 170.98569,52.827799" />
  </g>
</svg>

<svg xmlns="http://www.w3.org/2000/svg" width="192" height="192"><g style="fill:none;stroke:#000;stroke-width:12.565;stroke-dasharray:none;stroke-opacity:1"><path d="M30.697 21.665h132.686a8 8 45 0 1 8 8v132.686a8 8 135 0 1-8 8H30.697a8 8 45 0 1-8-8V29.665a8 8 135 0 1 8-8m102.146 37.793A36.93 36.93 0 0 1 95.91 96.39a36.93 36.93 0 0 1-36.93-36.93 36.93 36.93 0 0 1 36.93-36.932 36.93 36.93 0 0 1 36.932 36.931M96.33 170c-.974-22.12-12.74-69.817-73.298-74.092 50.846-2.948 115.378 17.49 147.953-43.08" style="opacity:1;fill:none;stroke:#000;stroke-width:12.565;stroke-linecap:round;stroke-linejoin:round;stroke-miterlimit:7.55883;stroke-dasharray:none;stroke-opacity:1;paint-order:stroke fill markers" transform="matrix(.95503 0 0 .95503 3.324 4.31)"/></g></svg>
